svgs/sharp-solid/arrow-down-to-square.svg

<svg xmlns="http://www.w3.org/2000/svg" viewBox="0 0 512 512"><!--! Font Awesome Pro 6.6.0 by @fontawesome - https://fontawesome.com License - https://fontawesome.com/license (Commercial License) Copyright 2024 Fonticons, Inc. --><path d="M278.6 342.6l96-96L397.3 224 352 178.7l-22.6 22.6L288 242.7 288 32l0-32L224 0l0 32 0 210.7-41.4-41.4L160 178.7 114.7 224l22.6 22.6 96 96L256 365.3l22.6-22.6zM32 32L0 32 0 64 0 480l0 32 32 0 448 0 32 0 0-32 0-416 0-32-32 0-96 0 0 64 64 0 0 352L64 448 64 96l64 0 0-64L32 32z"/></svg>

<svg xmlns="http://www.w3.org/2000/svg" viewBox="0 0 512 512"><!--! Font Awesome Pro 6.4.0 by @fontawesome - https://fontawesome.com License - https://fontawesome.com/license (Commercial License) Copyright 2023 Fonticons, Inc. --><path d="M278.6 342.6l96-96L397.3 224 352 178.7l-22.6 22.6L288 242.7V32 0H224V32 242.7l-41.4-41.4L160 178.7 114.7 224l22.6 22.6 96 96L256 365.3l22.6-22.6zM32 32H0V64 480v32H32 480h32V480 64 32H480 384V96h64V448H64V96h64V32H32z"/></svg>
